static/img/kroki/e4d0d6c739c67d0fc762087311a69b8d.svg

<?xml version="1.0" encoding="us-ascii" standalone="no"?><svg xmlns="http://www.w3.org/2000/svg" xmlns:xlink="http://www.w3.org/1999/xlink" contentStyleType="text/css" height="374px" preserveAspectRatio="none" style="width:565px;height:374px;" version="1.1" viewBox="0 0 565 374" width="565px" zoomAndPan="magnify"><defs/><g><!--class gcp_container_cluster--><g id="elem_gcp_container_cluster"><rect codeLine="23" fill="#3D176E" height="39.7891" id="gcp_container_cluster" rx="2.5" ry="2.5" style="stroke:#000D19;stroke-width:0.5;" width="223" x="116.5" y="328.58"/><ellipse cx="131.5" cy="348.4745" fill="#ADD1B2" rx="11" ry="11" style="stroke:#181818;stroke-width:1.0;"/><path d="M134.4688,354.1152 Q133.8906,354.412 133.25,354.5527 Q132.6094,354.7089 131.9063,354.7089 Q129.4063,354.7089 128.0781,353.0683 Q126.7656,351.412 126.7656,348.287 Q126.7656,345.162 128.0781,343.5058 Q129.4063,341.8495 131.9063,341.8495 Q132.6094,341.8495 133.25,342.0058 Q133.9063,342.162 134.4688,342.4589 L134.4688,345.1777 Q133.8438,344.5995 133.25,344.3339 Q132.6563,344.0527 132.0313,344.0527 Q130.6875,344.0527 130,345.1308 Q129.3125,346.1933 129.3125,348.287 Q129.3125,350.3808 130,351.4589 Q130.6875,352.5214 132.0313,352.5214 Q132.6563,352.5214 133.25,352.2558 Q133.8438,351.9745 134.4688,351.3964 L134.4688,354.1152 Z " fill="#000000"/><text fill="#D9B8FF" font-family="Helvetica" font-size="17" lengthAdjust="spacing" textLength="181" x="150.5" y="354.3598">gcp_container_cluster</text></g><!--class gcp_resource--><g id="elem_gcp_resource"><rect codeLine="26" fill="#3D176E" height="39.7891" id="gcp_resource" rx="2.5" ry="2.5" style="stroke:#000D19;stroke-width:0.5;" width="150" x="7" y="167.79"/><ellipse cx="22" cy="187.6845" fill="#ADD1B2" rx="11" ry="11" style="stroke:#181818;stroke-width:1.0;"/><path d="M24.9688,193.3252 Q24.3906,193.622 23.75,193.7627 Q23.1094,193.9189 22.4063,193.9189 Q19.9063,193.9189 18.5781,192.2783 Q17.2656,190.622 17.2656,187.497 Q17.2656,184.372 18.5781,182.7158 Q19.9063,181.0595 22.4063,181.0595 Q23.1094,181.0595 23.75,181.2158 Q24.4063,181.372 24.9688,181.6689 L24.9688,184.3877 Q24.3438,183.8095 23.75,183.5439 Q23.1563,183.2627 22.5313,183.2627 Q21.1875,183.2627 20.5,184.3408 Q19.8125,185.4033 19.8125,187.497 Q19.8125,189.5908 20.5,190.6689 Q21.1875,191.7314 22.5313,191.7314 Q23.1563,191.7314 23.75,191.4658 Q24.3438,191.1845 24.9688,190.6064 L24.9688,193.3252 Z " fill="#000000"/><text fill="#D9B8FF" font-family="Helvetica" font-size="17" lengthAdjust="spacing" textLength="108" x="41" y="193.5698">gcp_resource</text></g><!--class managed_kubernetes_cluster_provider--><g id="elem_managed_kubernetes_cluster_provider"><rect codeLine="29" fill="#3D176E" height="39.7891" id="managed_kubernetes_cluster_provider" rx="2.5" ry="2.5" style="stroke:#000D19;stroke-width:0.5;" width="366" x="192" y="167.79"/><ellipse cx="207" cy="187.6845" fill="#ADD1B2" rx="11" ry="11" style="stroke:#181818;stroke-width:1.0;"/><path d="M209.9688,193.3252 Q209.3906,193.622 208.75,193.7627 Q208.1094,193.9189 207.4063,193.9189 Q204.9063,193.9189 203.5781,192.2783 Q202.2656,190.622 202.2656,187.497 Q202.2656,184.372 203.5781,182.7158 Q204.9063,181.0595 207.4063,181.0595 Q208.1094,181.0595 208.75,181.2158 Q209.4063,181.372 209.9688,181.6689 L209.9688,184.3877 Q209.3438,183.8095 208.75,183.5439 Q208.1563,183.2627 207.5313,183.2627 Q206.1875,183.2627 205.5,184.3408 Q204.8125,185.4033 204.8125,187.497 Q204.8125,189.5908 205.5,190.6689 Q206.1875,191.7314 207.5313,191.7314 Q208.1563,191.7314 208.75,191.4658 Q209.3438,191.1845 209.9688,190.6064 L209.9688,193.3252 Z " fill="#000000"/><text fill="#D9B8FF" font-family="Helvetica" font-size="17" lengthAdjust="spacing" textLength="324" x="226" y="193.5698">managed_kubernetes_cluster_provider</text></g><!--class resource--><g id="elem_resource"><rect codeLine="32" fill="#3D176E" height="39.7891" id="resource" rx="2.5" ry="2.5" style="stroke:#000D19;stroke-width:0.5;" width="113" x="171.5" y="7"/><ellipse cx="186.5" cy="26.8945" fill="#ADD1B2" rx="11" ry="11" style="stroke:#181818;stroke-width:1.0;"/><path d="M189.4688,32.5352 Q188.8906,32.832 188.25,32.9727 Q187.6094,33.1289 186.9063,33.1289 Q184.4063,33.1289 183.0781,31.4883 Q181.7656,29.832 181.7656,26.707 Q181.7656,23.582 183.0781,21.9258 Q184.4063,20.2695 186.9063,20.2695 Q187.6094,20.2695 188.25,20.4258 Q188.9063,20.582 189.4688,20.8789 L189.4688,23.5977 Q188.8438,23.0195 188.25,22.7539 Q187.6563,22.4727 187.0313,22.4727 Q185.6875,22.4727 185,23.5508 Q184.3125,24.6133 184.3125,26.707 Q184.3125,28.8008 185,29.8789 Q185.6875,30.9414 187.0313,30.9414 Q187.6563,30.9414 188.25,30.6758 Q188.8438,30.3945 189.4688,29.8164 L189.4688,32.5352 Z " fill="#000000"/><text fill="#D9B8FF" font-family="Helvetica" font-size="17" lengthAdjust="spacing" textLength="71" x="205.5" y="32.7798">resource</text></g><!--reverse link gcp_resource to gcp_container_cluster--><g id="link_gcp_resource_gcp_container_cluster"><path codeLine="35" d="M111.7927,221.0907 C139.8527,251.6107 182.23,297.69 210.33,328.25 " fill="none" id="gcp_resource-backto-gcp_container_cluster" style="stroke:#FFAF37;stroke-width:2.0;"/><polygon fill="none" points="99.61,207.84,107.3758,225.1516,116.2096,217.0298,99.61,207.84" style="stroke:#FFAF37;stroke-width:2.0;"/></g><!--reverse link managed_kubernetes_cluster_provider to gcp_container_cluster--><g id="link_managed_kubernetes_cluster_provider_gcp_container_cluster"><path codeLine="36" d="M345.0405,221.0475 C316.7805,251.5675 274.09,297.69 245.79,328.25 " fill="none" id="managed_kubernetes_cluster_provider-backto-gcp_container_cluster" style="stroke:#FFAF37;stroke-width:2.0;"/><polygon fill="none" points="357.27,207.84,340.638,216.971,349.443,225.124,357.27,207.84" style="stroke:#FFAF37;stroke-width:2.0;"/></g><!--reverse link resource to gcp_resource--><g id="link_resource_gcp_resource"><path codeLine="37" d="M198.2073,60.3007 C170.1473,90.8207 127.77,136.9 99.67,167.46 " fill="none" id="resource-backto-gcp_resource" style="stroke:#FFAF37;stroke-width:2.0;"/><polygon fill="none" points="210.39,47.05,193.7904,56.2398,202.6242,64.3616,210.39,47.05" style="stroke:#FFAF37;stroke-width:2.0;"/></g><!--reverse link resource to managed_kubernetes_cluster_provider--><g id="link_resource_managed_kubernetes_cluster_provider"><path codeLine="38" d="M257.9595,60.2575 C286.2195,90.7775 328.91,136.9 357.21,167.46 " fill="none" id="resource-backto-managed_kubernetes_cluster_provider" style="stroke:#FFAF37;stroke-width:2.0;"/><polygon fill="none" points="245.73,47.05,253.557,64.334,262.362,56.181,245.73,47.05" style="stroke:#FFAF37;stroke-width:2.0;"/></g><!--SRC=[ZPDBRuCm48Jl_0fBEKSAZTe4gPSaKjLUeghf7MtiDLY0ZTOcKVhuxuMcL0RokkvyEpDhGQe4CYnATs055bia6zXCwH882hOWClkLoGsnaPGWfxE- -6IqkmgieK3sZFaEdUBG9zvJnJEDrh8xJre2pn8obHP7UqUWRIsXTXwroi7QXNEajfL3huo8jdCf-sJVT3GLuUm11vWXWVI7J2OJ4KPzv6hKnRl_YOtwG1RwZxOs3WSr1n6_rCMM3U6L71pQwcSxle8GIYVitfkz7JkHHkhCDoa8isze2RdrOwn3GkCE9Qu6Ls4q5t9s4duv1mUyUJgMy3BcTNjGTPMOvrMpoZw3uDi32AsfYAC_Bq13WYBEglfJr-ZGjjjnIMPN_mmTcwv5n_JnQpmUdouIt99oQVz4I3lgQpT41Jy0]--></g></svg>

<svg xmlns="http://www.w3.org/2000/svg" width="565" height="374" viewBox="0 0 565 374"><rect width="223" height="39.789" x="116.5" y="328.58" fill="#3D176E" rx="2.5" ry="2.5" style="stroke:#000d19;stroke-width:.5"/><circle cx="131.5" cy="348.474" r="11" fill="#ADD1B2" style="stroke:#181818;stroke-width:1"/><path d="M134.469 354.115q-.578.297-1.219.438-.64.156-1.344.156-2.5 0-3.828-1.64-1.312-1.657-1.312-4.782t1.312-4.781q1.328-1.656 3.828-1.656.703 0 1.344.156.656.156 1.219.453v2.719q-.625-.579-1.219-.844-.594-.281-1.219-.281-1.344 0-2.031 1.078-.687 1.062-.687 3.156t.687 3.172q.688 1.062 2.031 1.062.625 0 1.219-.265.594-.281 1.219-.86z"/><text x="150.5" y="354.36" fill="#D9B8FF" font-family="Helvetica" font-size="17" textLength="181">gcp_container_cluster</text><rect width="150" height="39.789" x="7" y="167.79" fill="#3D176E" rx="2.5" ry="2.5" style="stroke:#000d19;stroke-width:.5"/><circle cx="22" cy="187.685" r="11" fill="#ADD1B2" style="stroke:#181818;stroke-width:1"/><path d="M24.969 193.325q-.578.297-1.219.438-.64.156-1.344.156-2.5 0-3.828-1.64-1.312-1.657-1.312-4.782t1.312-4.781q1.328-1.656 3.828-1.656.703 0 1.344.156.656.156 1.219.453v2.719q-.625-.578-1.219-.844-.594-.281-1.219-.281-1.343 0-2.031 1.078-.687 1.062-.687 3.156t.687 3.172q.688 1.062 2.031 1.062.625 0 1.219-.265.594-.281 1.219-.86z"/><text x="41" y="193.57" fill="#D9B8FF" font-family="Helvetica" font-size="17" textLength="108">gcp_resource</text><rect width="366" height="39.789" x="192" y="167.79" fill="#3D176E" rx="2.5" ry="2.5" style="stroke:#000d19;stroke-width:.5"/><circle cx="207" cy="187.685" r="11" fill="#ADD1B2" style="stroke:#181818;stroke-width:1"/><path d="M209.969 193.325q-.578.297-1.219.438-.64.156-1.344.156-2.5 0-3.828-1.64-1.312-1.657-1.312-4.782t1.312-4.781q1.328-1.656 3.828-1.656.703 0 1.344.156.656.156 1.219.453v2.719q-.625-.578-1.219-.844-.594-.281-1.219-.281-1.344 0-2.031 1.078-.687 1.062-.687 3.156t.687 3.172q.688 1.062 2.031 1.062.625 0 1.219-.265.594-.281 1.219-.86z"/><text x="226" y="193.57" fill="#D9B8FF" font-family="Helvetica" font-size="17" textLength="324">managed_kubernetes_cluster_provider</text><rect width="113" height="39.789" x="171.5" y="7" fill="#3D176E" rx="2.5" ry="2.5" style="stroke:#000d19;stroke-width:.5"/><circle cx="186.5" cy="26.895" r="11" fill="#ADD1B2" style="stroke:#181818;stroke-width:1"/><path d="M189.469 32.535q-.578.297-1.219.438-.64.156-1.344.156-2.5 0-3.828-1.64-1.312-1.657-1.312-4.782t1.312-4.781q1.328-1.656 3.828-1.656.703 0 1.344.156.656.156 1.219.453v2.719q-.625-.578-1.219-.844-.594-.281-1.219-.281-1.344 0-2.031 1.078-.687 1.062-.687 3.156t.687 3.172q.688 1.062 2.031 1.062.625 0 1.219-.265.594-.281 1.219-.86z"/><text x="205.5" y="32.78" fill="#D9B8FF" font-family="Helvetica" font-size="17" textLength="71">resource</text><g fill="none"><path d="M111.793 221.09c28.06 30.52 70.437 76.6 98.537 107.16" style="stroke:#ffaf37;stroke-width:2"/><path d="m99.61 207.84 7.766 17.312 8.834-8.122z" style="stroke:#ffaf37;stroke-width:2"/></g><path fill="none" d="M345.04 221.048c-28.26 30.52-70.95 76.642-99.25 107.202m111.48-120.41-16.632 9.131 8.805 8.153z" style="stroke:#ffaf37;stroke-width:2"/><g fill="none"><path d="M198.207 60.3c-28.06 30.52-70.437 76.6-98.537 107.16" style="stroke:#ffaf37;stroke-width:2"/><path d="m210.39 47.05-16.6 9.19 8.834 8.122z" style="stroke:#ffaf37;stroke-width:2"/></g><path fill="none" d="M257.96 60.258c28.26 30.52 70.95 76.642 99.25 107.202M245.73 47.05l7.827 17.284 8.805-8.153z" style="stroke:#ffaf37;stroke-width:2"/></svg>
